src/images/std-icons/std-pencil.svg

<svg xmlns="http://www.w3.org/2000/svg" width="512" height="512" viewBox="0 0 512 512">
  <title>pencil</title>
  <path fill="#000" fill-rule="nonzero" d="M63.9990274,372.48 L63.9990274,437.333333 C63.9720097,440.170797 65.0868256,442.900199 67.0933133,444.906687 C69.099801,446.913174 71.8292026,448.02799 74.6666667,448.000856 L139.52,448.000856 C142.349378,448.036979 145.06215,446.874362 146.986667,444.8 L379.946667,212.053333 L299.946667,132.053333 L67.2,364.8 C65.1187756,366.808418 63.9606178,369.587996 63.9990274,372.48 Z M441.813333,150.186667 C445.808214,146.201011 448.053292,140.789762 448.053292,135.146667 C448.053292,129.503571 445.808214,124.092322 441.813333,120.106667 L391.893333,70.1866667 C387.907678,66.1917856 382.496429,63.9467076 376.853333,63.9467076 C371.210238,63.9467076 365.798989,66.1917856 361.813333,70.1866667 L322.773333,109.226667 L402.773333,189.226667 L441.813333,150.186667 Z"/>
</svg>

<svg xmlns="http://www.w3.org/2000/svg" viewBox="0 0 512 512">
  <title>
    pencil
  </title>
  <path d="M64 372.48v64.85A10.57 10.57 0 0 0 74.67 448h64.85c2.83.04 5.54-1.13 7.47-3.2l232.96-232.75-80-80L67.2 364.8c-2.08 2-3.24 4.79-3.2 7.68zm377.81-222.3a21.25 21.25 0 0 0 0-30.07L391.9 70.19a21.25 21.25 0 0 0-30.08 0l-39.04 39.04 80 80 39.04-39.04z"/>
</svg>
